Newaita-dark/apps/16/discord-canary.svg

<?xml version="1.0" encoding="UTF-8"?>
<svg xmlns="http://www.w3.org/2000/svg" xmlns:xlink="http://www.w3.org/1999/xlink" width="16pt" height="16pt" viewBox="0 0 16 16" version="1.1">
<defs>
<linearGradient id="linear0" gradientUnits="userSpaceOnUse" x1="254" y1="233.5" x2="254" y2="254.666672" gradientTransform="matrix(0.031253,0,0,0.031253,-0.00000190753,6.719393)">
<stop offset="0" style="stop-color:rgb(0%,0%,0%);stop-opacity:0.27451;"/>
<stop offset="1" style="stop-color:rgb(0%,0%,0%);stop-opacity:0;"/>
</linearGradient>
<radialGradient id="radial0" gradientUnits="userSpaceOnUse" cx="450.908936" cy="189.579361" fx="450.908936" fy="189.579361" r="21.166656" gradientTransform="matrix(0.0000000870852,-0.0390662,-0.0703192,-0.0000000507693,25.734564,31.797666)">
<stop offset="0" style="stop-color:rgb(0%,0%,0%);stop-opacity:0.313725;"/>
<stop offset="0.222222" style="stop-color:rgb(0%,0%,0%);stop-opacity:0.27451;"/>
<stop offset="1" style="stop-color:rgb(0%,0%,0%);stop-opacity:0;"/>
</radialGradient>
<radialGradient id="radial1" gradientUnits="userSpaceOnUse" cx="450.908936" cy="189.579361" fx="450.908936" fy="189.579361" r="21.166656" gradientTransform="matrix(-0.0000000870852,0.0390662,0.0703192,0.0000000507693,-0.927506,-3.763739)">
<stop offset="0" style="stop-color:rgb(0%,0%,0%);stop-opacity:0.313725;"/>
<stop offset="0.222222" style="stop-color:rgb(0%,0%,0%);stop-opacity:0.27451;"/>
<stop offset="1" style="stop-color:rgb(0%,0%,0%);stop-opacity:0;"/>
</radialGradient>
<radialGradient id="radial2" gradientUnits="userSpaceOnUse" cx="450.908936" cy="189.579361" fx="450.908936" fy="189.579361" r="21.166656" gradientTransform="matrix(-0.0000000870852,-0.0390662,0.0703192,-0.0000000507693,-0.927506,31.797666)">
<stop offset="0" style="stop-color:rgb(0%,0%,0%);stop-opacity:0.313725;"/>
<stop offset="0.222222" style="stop-color:rgb(0%,0%,0%);stop-opacity:0.27451;"/>
<stop offset="1" style="stop-color:rgb(0%,0%,0%);stop-opacity:0;"/>
</radialGradient>
<radialGradient id="radial3" gradientUnits="userSpaceOnUse" cx="450.908936" cy="189.579361" fx="450.908936" fy="189.579361" r="21.166656" gradientTransform="matrix(0.0000000870852,0.0390662,-0.0703192,0.0000000507693,25.734563,-3.76374)">
<stop offset="0" style="stop-color:rgb(0%,0%,0%);stop-opacity:0.313725;"/>
<stop offset="0.222222" style="stop-color:rgb(0%,0%,0%);stop-opacity:0.27451;"/>
<stop offset="1" style="stop-color:rgb(0%,0%,0%);stop-opacity:0;"/>
</radialGradient>
<linearGradient id="linear1" gradientUnits="userSpaceOnUse" x1="169.333328" y1="233.5" x2="169.333328" y2="-168.666656" gradientTransform="matrix(0.031253,0,0,0.031253,0,6.719391)">
<stop offset="0" style="stop-color:rgb(100%,65.490196%,14.901961%);stop-opacity:1;"/>
<stop offset="1" style="stop-color:rgb(100%,71.764706%,30.196078%);stop-opacity:1;"/>
</linearGradient>
<linearGradient id="linear2" gradientUnits="userSpaceOnUse" x1="960" y1="495.118103" x2="960" y2="1135.118164" >
<stop offset="0" style="stop-color:rgb(87.843137%,87.843137%,87.843137%);stop-opacity:1;"/>
<stop offset="1" style="stop-color:rgb(93.333333%,93.333333%,93.333333%);stop-opacity:1;"/>
</linearGradient>
</defs>
<g id="surface1">
<path style=" stroke:none;fill-rule:nonzero;fill:url(#linear0);" d="M 12.238281 13.96875 L 12.570312 13.96875 L 12.570312 14.703125 L 12.238281 14.703125 Z M 12.238281 13.96875 "/>
<path style=" stroke:none;fill-rule:nonzero;fill:url(#radial0);" d="M 12.570312 14.015625 L 13.890625 14.015625 L 13.890625 13.355469 L 12.570312 13.355469 Z M 12.570312 14.015625 "/>
<path style=" stroke:none;fill-rule:nonzero;fill:url(#radial1);" d="M 12.238281 14.015625 L 10.914062 14.015625 L 10.914062 14.679688 L 12.238281 14.679688 Z M 12.238281 14.015625 "/>
<path style=" stroke:none;fill-rule:nonzero;fill:url(#radial2);" d="M 12.238281 14.015625 L 10.914062 14.015625 L 10.914062 13.355469 L 12.238281 13.355469 Z M 12.238281 14.015625 "/>
<path style=" stroke:none;fill-rule:nonzero;fill:url(#radial3);" d="M 12.570312 14.015625 L 13.890625 14.015625 L 13.890625 14.679688 L 12.570312 14.679688 Z M 12.570312 14.015625 "/>
<path style=" stroke:none;fill-rule:nonzero;fill:url(#linear1);" d="M 2.316406 1.449219 C 1.949219 1.449219 1.652344 1.742188 1.652344 2.109375 L 1.652344 11.371094 C 1.652344 11.738281 1.949219 12.03125 2.316406 12.03125 L 10.738281 12.03125 L 11.964844 13.871094 C 12.023438 13.960938 12.128906 14.015625 12.238281 14.015625 L 12.570312 14.015625 C 12.75 14.015625 12.898438 13.867188 12.898438 13.6875 L 12.898438 12.03125 L 13.5625 12.03125 C 13.925781 12.03125 14.222656 11.738281 14.222656 11.371094 L 14.222656 2.109375 C 14.222656 1.742188 13.925781 1.449219 13.5625 1.449219 Z M 2.316406 1.449219 "/>
<path style=" stroke:none;fill-rule:nonzero;fill:rgb(90.196079%,90.196079%,90.196079%);fill-opacity:0.392157;" d="M 2.316406 1.488281 C 1.949219 1.488281 1.652344 1.785156 1.652344 2.152344 L 1.652344 2.234375 C 1.652344 1.867188 1.949219 1.570312 2.316406 1.570312 L 13.5625 1.570312 C 13.925781 1.570312 14.222656 1.867188 14.222656 2.234375 L 14.222656 2.152344 C 14.222656 1.785156 13.925781 1.488281 13.5625 1.488281 Z M 2.316406 1.488281 "/>
<path style="fill-rule:nonzero;fill:url(#linear2);stroke-width:11.338583;stroke-linecap:round;stroke-linejoin:round;stroke:rgb(12.941177%,12.941177%,12.941177%);stroke-opacity:1;stroke-miterlimit:4;" d="M 841.809419 503.573985 C 768.588061 506.880756 695.839099 535.696903 639.151596 581.046906 C 574.433364 710.010975 536.641695 853.14692 535.696903 997.700052 C 530.028153 1075.172973 672.219306 1105.406308 756.778165 1107.295892 C 799.766188 1104.933912 829.999523 1065.25266 801.183375 1046.356826 C 762.919311 1032.657346 707.648996 1020.847449 679.77764 995.338073 C 650.016701 975.025051 659.937014 955.184425 678.360452 963.215155 C 761.974519 1015.651095 860.232858 1043.994847 958.491196 1044.939638 C 958.963592 1044.939638 958.963592 1044.939638 959.435988 1044.939638 C 959.435988 1044.939638 959.908384 1044.939638 959.908384 1044.939638 C 1058.166722 1043.994847 1156.897457 1015.651095 1240.039128 963.215155 C 1258.462566 955.184425 1268.382879 975.025051 1238.62194 995.338073 C 1210.750584 1020.847449 1155.952665 1032.657346 1117.216205 1046.356826 C 1088.400057 1065.25266 1118.633392 1104.933912 1161.621415 1107.295892 C 1246.180274 1105.406308 1388.371427 1075.172973 1382.702677 997.700052 C 1381.757885 853.14692 1344.438612 710.010975 1279.72038 581.046906 C 1222.560481 535.696903 1149.811519 506.880756 1076.590161 503.573985 C 1073.28339 504.046381 1070.92141 509.715131 1068.087035 512.07711 C 1136.112039 531.917736 1203.664647 560.261488 1257.99017 606.556282 C 1198.940688 575.850551 1135.167247 552.703154 1068.559431 542.782841 C 1032.657346 536.641695 995.810469 533.80732 959.435988 533.80732 C 922.589111 533.80732 885.742234 536.641695 849.840149 542.782841 C 783.704729 552.703154 719.931288 575.850551 660.40941 606.556282 C 714.734933 560.261488 782.287541 531.917736 850.312545 512.07711 C 847.47817 509.715131 845.588586 504.046381 841.809419 503.573985 Z M 799.766188 754.888581 C 844.171399 754.888581 880.073484 790.790667 880.073484 835.195877 C 880.073484 879.601088 844.171399 915.030777 799.766188 915.030777 C 755.833373 915.030777 719.931288 879.601088 719.931288 835.195877 C 719.931288 790.790667 755.833373 754.888581 799.766188 754.888581 Z M 1120.05058 754.888581 C 1164.45579 754.888581 1199.88548 790.790667 1199.88548 835.195877 C 1199.88548 879.601088 1164.45579 915.030777 1120.05058 915.030777 C 1075.645369 915.030777 1040.21568 879.601088 1040.21568 835.195877 C 1040.21568 790.790667 1075.645369 754.888581 1120.05058 754.888581 Z M 1120.05058 754.888581 " transform="matrix(0.00826902,0,0,0.00826902,0,0)"/>
<path style=" stroke:none;fill-rule:nonzero;fill:rgb(0%,0%,0%);fill-opacity:0.235294;" d="M 1.652344 11.246094 L 1.652344 11.371094 C 1.652344 11.738281 1.949219 12.03125 2.316406 12.03125 L 10.738281 12.03125 L 11.964844 13.871094 C 12.023438 13.960938 12.128906 14.015625 12.238281 14.015625 L 12.570312 14.015625 C 12.75 14.015625 12.898438 13.867188 12.898438 13.6875 L 12.898438 13.5625 C 12.898438 13.746094 12.75 13.894531 12.570312 13.894531 L 12.238281 13.894531 C 12.128906 13.894531 12.023438 13.835938 11.964844 13.746094 L 10.738281 11.910156 L 2.316406 11.910156 C 1.949219 11.910156 1.652344 11.613281 1.652344 11.246094 Z M 14.222656 11.246094 C 14.222656 11.613281 13.925781 11.910156 13.5625 11.910156 L 12.898438 11.910156 L 12.898438 12.03125 L 13.5625 12.03125 C 13.925781 12.03125 14.222656 11.738281 14.222656 11.371094 Z M 14.222656 11.246094 "/>
<path style=" stroke:none;fill-rule:nonzero;fill:rgb(12.941177%,12.941177%,12.941177%);fill-opacity:1;" d="M 2.316406 1.402344 C 1.921875 1.402344 1.605469 1.71875 1.605469 2.109375 L 1.605469 11.371094 C 1.605469 11.761719 1.921875 12.078125 2.316406 12.078125 L 10.714844 12.078125 L 11.925781 13.894531 C 11.992188 14 12.113281 14.0625 12.238281 14.0625 L 12.570312 14.0625 C 12.777344 14.0625 12.945312 13.894531 12.945312 13.6875 L 12.945312 12.078125 L 13.5625 12.078125 C 13.953125 12.078125 14.269531 11.761719 14.269531 11.371094 L 14.269531 2.109375 C 14.269531 1.71875 13.953125 1.402344 13.5625 1.402344 Z M 2.316406 1.496094 L 13.5625 1.496094 C 13.902344 1.496094 14.175781 1.769531 14.175781 2.109375 L 14.175781 11.371094 C 14.175781 11.710938 13.902344 11.984375 13.5625 11.984375 L 12.851562 11.984375 L 12.851562 13.6875 C 12.851562 13.84375 12.726562 13.96875 12.570312 13.96875 L 12.238281 13.96875 C 12.144531 13.96875 12.054688 13.921875 12.003906 13.84375 L 10.761719 11.984375 L 2.316406 11.984375 C 1.972656 11.984375 1.699219 11.710938 1.699219 11.371094 L 1.699219 2.109375 C 1.699219 1.769531 1.972656 1.496094 2.316406 1.496094 Z M 2.316406 1.496094 "/>
<path style=" stroke:none;fill-rule:nonzero;fill:rgb(0%,0%,0%);fill-opacity:0.235294;" d="M 10.742188 11.910156 L 9.59375 10.046875 L 10.417969 11.910156 Z M 10.742188 11.910156 "/>
</g>
</svg>

<svg xmlns="http://www.w3.org/2000/svg" width="16pt" height="16pt" viewBox="0 0 16 16"><defs><linearGradient id="a" gradientUnits="userSpaceOnUse" x1="254" y1="233.5" x2="254" y2="254.667" gradientTransform="matrix(.03125 0 0 .03125 0 6.72)"><stop offset="0" stop-opacity=".275"/><stop offset="1" stop-opacity="0"/></linearGradient><radialGradient id="b" gradientUnits="userSpaceOnUse" cx="450.909" cy="189.579" fx="450.909" fy="189.579" r="21.167" gradientTransform="matrix(0 -.03907 -.07032 0 25.735 31.798)"><stop offset="0" stop-opacity=".314"/><stop offset=".222" stop-opacity=".275"/><stop offset="1" stop-opacity="0"/></radialGradient><radialGradient id="c" gradientUnits="userSpaceOnUse" cx="450.909" cy="189.579" fx="450.909" fy="189.579" r="21.167" gradientTransform="matrix(0 .03907 .07032 0 -.928 -3.764)"><stop offset="0" stop-opacity=".314"/><stop offset=".222" stop-opacity=".275"/><stop offset="1" stop-opacity="0"/></radialGradient><radialGradient id="d" gradientUnits="userSpaceOnUse" cx="450.909" cy="189.579" fx="450.909" fy="189.579" r="21.167" gradientTransform="matrix(0 -.03907 .07032 0 -.928 31.798)"><stop offset="0" stop-opacity=".314"/><stop offset=".222" stop-opacity=".275"/><stop offset="1" stop-opacity="0"/></radialGradient><radialGradient id="e" gradientUnits="userSpaceOnUse" cx="450.909" cy="189.579" fx="450.909" fy="189.579" r="21.167" gradientTransform="matrix(0 .03907 -.07032 0 25.735 -3.764)"><stop offset="0" stop-opacity=".314"/><stop offset=".222" stop-opacity=".275"/><stop offset="1" stop-opacity="0"/></radialGradient><linearGradient id="f" gradientUnits="userSpaceOnUse" x1="169.333" y1="233.5" x2="169.333" y2="-168.667" gradientTransform="matrix(.03125 0 0 .03125 0 6.72)"><stop offset="0" stop-color="#ffa726"/><stop offset="1" stop-color="#ffb74d"/></linearGradient><linearGradient id="g" gradientUnits="userSpaceOnUse" x1="960" y1="495.118" x2="960" y2="1135.118"><stop offset="0" stop-color="#e0e0e0"/><stop offset="1" stop-color="#eee"/></linearGradient></defs><path d="M12.238 13.969h.332v.734h-.332zm0 0" fill="url(#a)"/><path d="M12.57 14.016h1.32v-.66h-1.32zm0 0" fill="url(#b)"/><path d="M12.238 14.016h-1.324v.664h1.324zm0 0" fill="url(#c)"/><path d="M12.238 14.016h-1.324v-.66h1.324zm0 0" fill="url(#d)"/><path d="M12.57 14.016h1.32v.664h-1.32zm0 0" fill="url(#e)"/><path d="M2.316 1.45a.66.66 0 0 0-.664.66v9.261c0 .367.297.66.664.66h8.422l1.227 1.84c.058.09.164.145.273.145h.332a.33.33 0 0 0 .328-.329v-1.656h.665a.66.66 0 0 0 .66-.66V2.11a.66.66 0 0 0-.66-.66zm0 0" fill="url(#f)"/><path d="M2.316 1.488a.664.664 0 0 0-.664.664v.082c0-.367.297-.664.664-.664h11.246c.364 0 .66.297.66.664v-.082a.663.663 0 0 0-.66-.664zm0 0" fill="#e6e6e6" fill-opacity=".392"/><path d="M841.81 503.574c-73.222 3.307-145.97 32.123-202.658 77.473-64.719 128.964-102.51 272.1-103.455 416.653-5.669 77.473 136.522 107.706 221.081 109.596 42.988-2.362 73.222-42.043 44.405-60.94-38.264-13.699-93.534-25.509-121.405-51.018-29.761-20.313-19.841-40.154-1.418-32.123 83.615 52.436 181.873 80.78 280.131 81.725H959.908c98.259-.945 196.99-29.289 280.131-81.725 18.424-8.03 28.344 11.81-1.417 32.123-27.871 25.51-82.67 37.32-121.406 51.019-28.816 18.896 1.417 58.577 44.405 60.939 84.56-1.89 226.75-32.123 221.082-109.596-.945-144.553-38.264-287.689-102.983-416.653-57.16-45.35-129.908-74.166-203.13-77.473-3.307.472-5.669 6.141-8.503 8.503 68.025 19.84 135.578 48.184 189.903 94.48-59.05-30.706-122.823-53.854-189.43-63.774-35.903-6.141-72.75-8.976-109.124-8.976-36.847 0-73.694 2.835-109.596 8.976-66.135 9.92-129.909 33.068-189.43 63.773 54.325-46.295 121.878-74.638 189.903-94.479-2.835-2.362-4.724-8.03-8.504-8.503zm-42.044 251.315c44.405 0 80.307 35.902 80.307 80.307s-35.902 79.835-80.307 79.835c-43.933 0-79.835-35.43-79.835-79.835 0-44.405 35.902-80.307 79.835-80.307zm320.285 0c44.405 0 79.834 35.902 79.834 80.307s-35.43 79.835-79.834 79.835c-44.406 0-79.835-35.43-79.835-79.835 0-44.405 35.43-80.307 79.835-80.307zm0 0" transform="rotate(.882) scale(.00827)" fill="url(#g)" stroke-width="11.339" stroke-linecap="round" stroke-linejoin="round" stroke="#212121"/><path d="M1.652 11.246v.125c0 .367.297.66.664.66h8.422l1.227 1.84c.058.09.164.145.273.145h.332a.33.33 0 0 0 .328-.329v-.124a.33.33 0 0 1-.328.332h-.332a.332.332 0 0 1-.273-.149l-1.227-1.836H2.316a.664.664 0 0 1-.664-.664zm12.57 0a.663.663 0 0 1-.66.664h-.664v.121h.665a.66.66 0 0 0 .66-.66zm0 0" fill-opacity=".235"/><path d="M2.316 1.402a.708.708 0 0 0-.71.707v9.262c0 .39.316.707.71.707h8.399l1.21 1.817a.37.37 0 0 0 .313.168h.332a.375.375 0 0 0 .375-.376v-1.609h.617c.391 0 .708-.316.708-.707V2.11a.707.707 0 0 0-.707-.707zm0 .094h11.246c.34 0 .614.274.614.613v9.262c0 .34-.274.613-.614.613h-.71v1.704a.28.28 0 0 1-.282.28h-.332a.28.28 0 0 1-.234-.124l-1.242-1.86H2.316a.613.613 0 0 1-.617-.613V2.11c0-.34.274-.613.617-.613zm0 0" fill="#212121"/><path d="M10.742 11.91l-1.148-1.863.824 1.863zm0 0" fill-opacity=".235"/></svg>
